src/images/mediaLogos/lightTheme/RACFoundation.svg

<svg width="75" height="39" viewBox="0 0 75 39" fill="none" xmlns="http://www.w3.org/2000/svg">
<path d="M31.495 23.1619C31.9255 23.1619 32.2654 23.0758 32.5145 22.9036C32.7667 22.7313 32.8928 22.4207 32.8928 21.9717C32.8928 21.4888 32.7175 21.1597 32.3669 20.9844C32.1793 20.8921 31.9286 20.846 31.6149 20.846H29.3728V23.1619H31.495ZM28.4547 20.0571H31.5918C32.1085 20.0571 32.5345 20.1324 32.8698 20.2832C33.5064 20.5723 33.8247 21.1059 33.8247 21.884C33.8247 22.29 33.7402 22.6222 33.571 22.8805C33.4049 23.1389 33.1712 23.3465 32.8698 23.5033C33.1343 23.611 33.3326 23.7525 33.4649 23.9278C33.6002 24.1031 33.6756 24.3876 33.6909 24.7812L33.7232 25.6901C33.7325 25.9484 33.754 26.1407 33.7878 26.2668C33.8432 26.4821 33.9416 26.6205 34.0831 26.682V26.8342H32.9574C32.9267 26.7758 32.9021 26.7004 32.8836 26.6082C32.8651 26.5159 32.8498 26.3375 32.8375 26.073L32.7821 24.9427C32.7606 24.4998 32.596 24.203 32.2885 24.0523C32.1132 23.9693 31.8379 23.9278 31.4627 23.9278H29.3728V26.8342H28.4547V20.0571Z" fill="#3A3A3A"/>
<path d="M38.6504 24.0569L37.6216 21.0628L36.5282 24.0569H38.6504ZM37.1418 20.0571H38.1798L40.6388 26.8342H39.633L38.9456 24.8043H36.2652L35.5317 26.8342H34.5906L37.1418 20.0571Z" fill="#3A3A3A"/>
<path d="M44.3295 19.8726C45.1876 19.8726 45.8535 20.0986 46.3271 20.5507C46.8008 21.0028 47.0637 21.5165 47.116 22.0916H46.221C46.1195 21.6549 45.9165 21.3089 45.612 21.0536C45.3106 20.7983 44.8862 20.6707 44.3387 20.6707C43.6713 20.6707 43.1316 20.906 42.7194 21.3765C42.3104 21.844 42.1058 22.5622 42.1058 23.531C42.1058 24.3245 42.2904 24.9689 42.6595 25.464C43.0316 25.9561 43.5852 26.2022 44.3203 26.2022C44.9969 26.2022 45.5121 25.9423 45.8658 25.4225C46.0534 25.1488 46.1933 24.7889 46.2856 24.343H47.1806C47.1006 25.0565 46.8361 25.6547 46.3871 26.1376C45.8489 26.7189 45.123 27.0095 44.2096 27.0095C43.4222 27.0095 42.7609 26.7712 42.2258 26.2944C41.5215 25.6639 41.1693 24.6905 41.1693 23.3741C41.1693 22.3746 41.4338 21.5549 41.9628 20.9152C42.5349 20.2201 43.3238 19.8726 44.3295 19.8726Z" fill="#3A3A3A"/>
<path d="M28.4316 31.0801H33.1327V31.9105H29.3497V33.9681H32.676V34.7755H29.3497V37.8572H28.4316V31.0801Z" fill="#3A3A3A"/>
<path d="M35.97 37.3221C36.5205 37.3221 36.8973 37.1145 37.1003 36.6993C37.3063 36.281 37.4094 35.8166 37.4094 35.306C37.4094 34.8447 37.3356 34.4694 37.1879 34.1803C36.9542 33.7251 36.5513 33.4975 35.9792 33.4975C35.4717 33.4975 35.1027 33.6913 34.872 34.0788C34.6413 34.4664 34.526 34.9339 34.526 35.4813C34.526 36.0073 34.6413 36.4455 34.872 36.7961C35.1027 37.1468 35.4687 37.3221 35.97 37.3221ZM36.0023 32.7732C36.6389 32.7732 37.1772 32.9855 37.617 33.4099C38.0568 33.8343 38.2767 34.4587 38.2767 35.2829C38.2767 36.0795 38.0829 36.7377 37.6954 37.2575C37.3079 37.7773 36.7066 38.0372 35.8916 38.0372C35.2118 38.0372 34.6721 37.808 34.2722 37.3498C33.8724 36.8884 33.6725 36.2702 33.6725 35.4952C33.6725 34.6647 33.8832 34.0035 34.3045 33.5114C34.7259 33.0193 35.2918 32.7732 36.0023 32.7732Z" fill="#3A3A3A"/>
<path d="M40.099 32.9163V36.1964C40.099 36.4486 40.139 36.6547 40.2189 36.8146C40.3666 37.1099 40.6418 37.2575 41.0448 37.2575C41.623 37.2575 42.0166 36.9991 42.2258 36.4824C42.3396 36.2056 42.3965 35.8258 42.3965 35.3429V32.9163H43.2269V37.8572H42.4426L42.4518 37.1283C42.3442 37.3159 42.2104 37.4743 42.0505 37.6035C41.7337 37.8618 41.3492 37.991 40.8971 37.991C40.1928 37.991 39.713 37.7557 39.4577 37.2852C39.3193 37.033 39.2501 36.6962 39.2501 36.2748V32.9163H40.099Z" fill="#3A3A3A"/>
<path d="M44.5279 32.9163H45.3168V33.6175C45.5505 33.3284 45.7981 33.1208 46.0595 32.9947C46.321 32.8686 46.6116 32.8055 46.9315 32.8055C47.6327 32.8055 48.1064 33.05 48.3524 33.5391C48.4877 33.8066 48.5554 34.1896 48.5554 34.6878V37.8572H47.7112V34.7432C47.7112 34.4418 47.6666 34.1988 47.5774 34.0143C47.4297 33.7067 47.1622 33.5529 46.7746 33.5529C46.5778 33.5529 46.4163 33.5729 46.2902 33.6129C46.0626 33.6805 45.8627 33.8159 45.6905 34.0189C45.5521 34.1819 45.4613 34.351 45.4183 34.5263C45.3783 34.6986 45.3583 34.9462 45.3583 35.2691V37.8572H44.5279V32.9163Z" fill="#3A3A3A"/>
<path d="M50.3131 35.4444C50.3131 35.9734 50.4254 36.4163 50.6499 36.7731C50.8744 37.1299 51.2343 37.3082 51.7295 37.3082C52.1139 37.3082 52.4292 37.1437 52.6752 36.8146C52.9243 36.4824 53.0489 36.0073 53.0489 35.3891C53.0489 34.7647 52.9213 34.3034 52.666 34.005C52.4107 33.7036 52.0954 33.5529 51.7202 33.5529C51.3019 33.5529 50.9621 33.7128 50.7007 34.0327C50.4423 34.3526 50.3131 34.8231 50.3131 35.4444ZM51.5634 32.8286C51.9417 32.8286 52.2585 32.9086 52.5137 33.0685C52.6614 33.1608 52.829 33.3222 53.0166 33.5529V31.057H53.8147V37.8572H53.0673V37.1698C52.8736 37.4743 52.6444 37.6942 52.3799 37.8296C52.1154 37.9649 51.8125 38.0325 51.4711 38.0325C50.9206 38.0325 50.4438 37.8019 50.0409 37.3405C49.638 36.8761 49.4366 36.2595 49.4366 35.4905C49.4366 34.7709 49.6196 34.148 49.9856 33.6221C50.3546 33.0931 50.8806 32.8286 51.5634 32.8286Z" fill="#3A3A3A"/>
<path d="M55.6832 36.5424C55.6832 36.7823 55.7708 36.9715 55.9461 37.1099C56.1214 37.2483 56.329 37.3175 56.5689 37.3175C56.8611 37.3175 57.1441 37.2498 57.4178 37.1145C57.8792 36.89 58.1098 36.5224 58.1098 36.0119V35.3429C58.0083 35.4075 57.8776 35.4613 57.7177 35.5044C57.5577 35.5474 57.4009 35.5782 57.2471 35.5967L56.7442 35.6612C56.4428 35.7012 56.2168 35.7643 56.0661 35.8504C55.8108 35.9949 55.6832 36.2256 55.6832 36.5424ZM57.6946 34.8631C57.8853 34.8385 58.0129 34.7586 58.0775 34.6232C58.1144 34.5494 58.1329 34.4433 58.1329 34.3049C58.1329 34.0219 58.0314 33.8174 57.8284 33.6913C57.6285 33.5621 57.3409 33.4975 56.9657 33.4975C56.532 33.4975 56.2245 33.6144 56.043 33.8482C55.9415 33.9773 55.8754 34.1696 55.8446 34.4248H55.0696C55.085 33.8159 55.2818 33.393 55.6601 33.1562C56.0415 32.9163 56.4828 32.7963 56.9841 32.7963C57.5654 32.7963 58.0375 32.907 58.4005 33.1285C58.7603 33.3499 58.9402 33.6944 58.9402 34.1619V37.0084C58.9402 37.0945 58.9572 37.1637 58.991 37.216C59.0279 37.2683 59.1032 37.2944 59.217 37.2944C59.254 37.2944 59.2955 37.2929 59.3416 37.2898C59.3877 37.2836 59.437 37.2759 59.4892 37.2667V37.8803C59.3601 37.9172 59.2616 37.9403 59.194 37.9495C59.1263 37.9587 59.034 37.9633 58.9172 37.9633C58.6311 37.9633 58.4235 37.8618 58.2944 37.6589C58.2267 37.5512 58.179 37.399 58.1513 37.2021C57.9822 37.4236 57.7392 37.6158 57.4224 37.7788C57.1056 37.9418 56.7565 38.0233 56.3752 38.0233C55.9169 38.0233 55.5417 37.8849 55.2495 37.6081C54.9604 37.3282 54.8158 36.9791 54.8158 36.5609C54.8158 36.1026 54.9589 35.7474 55.2449 35.4952C55.5309 35.243 55.9061 35.0876 56.3706 35.0292L57.6946 34.8631Z" fill="#3A3A3A"/>
<path d="M60.4719 31.5368H61.3115V32.9163H62.1004V33.5944H61.3115V36.8192C61.3115 36.9914 61.37 37.1068 61.4869 37.1652C61.5514 37.1991 61.6591 37.216 61.8098 37.216C61.8498 37.216 61.8928 37.216 61.939 37.216C61.9851 37.2129 62.0389 37.2083 62.1004 37.2021V37.8572C62.0051 37.8849 61.9051 37.9049 61.8006 37.9172C61.6991 37.9295 61.5883 37.9357 61.4684 37.9357C61.0809 37.9357 60.8179 37.8372 60.6795 37.6404C60.5411 37.4405 60.4719 37.1821 60.4719 36.8653V33.5944H59.8029V32.9163H60.4719V31.5368Z" fill="#3A3A3A"/>
<path d="M62.9355 32.9393H63.7797V37.8572H62.9355V32.9393ZM62.9355 31.0801H63.7797V32.0212H62.9355V31.0801Z" fill="#3A3A3A"/>
<path d="M66.9999 37.3221C67.5504 37.3221 67.9272 37.1145 68.1302 36.6993C68.3363 36.281 68.4393 35.8166 68.4393 35.306C68.4393 34.8447 68.3655 34.4694 68.2178 34.1803C67.9841 33.7251 67.5812 33.4975 67.0091 33.4975C66.5016 33.4975 66.1326 33.6913 65.9019 34.0788C65.6712 34.4664 65.5559 34.9339 65.5559 35.4813C65.5559 36.0073 65.6712 36.4455 65.9019 36.7961C66.1326 37.1468 66.4986 37.3221 66.9999 37.3221ZM67.0322 32.7732C67.6688 32.7732 68.2071 32.9855 68.6469 33.4099C69.0867 33.8343 69.3066 34.4587 69.3066 35.2829C69.3066 36.0795 69.1128 36.7377 68.7253 37.2575C68.3378 37.7773 67.7365 38.0372 66.9215 38.0372C66.2418 38.0372 65.702 37.808 65.3022 37.3498C64.9023 36.8884 64.7024 36.2702 64.7024 35.4952C64.7024 34.6647 64.9131 34.0035 65.3344 33.5114C65.7558 33.0193 66.3217 32.7732 67.0322 32.7732Z" fill="#3A3A3A"/>
<path d="M70.2985 32.9163H71.0874V33.6175C71.3211 33.3284 71.5687 33.1208 71.8302 32.9947C72.0916 32.8686 72.3822 32.8055 72.7021 32.8055C73.4033 32.8055 73.877 33.05 74.123 33.5391C74.2584 33.8066 74.326 34.1896 74.326 34.6878V37.8572H73.4818V34.7432C73.4818 34.4418 73.4372 34.1988 73.348 34.0143C73.2003 33.7067 72.9328 33.5529 72.5452 33.5529C72.3484 33.5529 72.1869 33.5729 72.0608 33.6129C71.8332 33.6805 71.6333 33.8159 71.4611 34.0189C71.3227 34.1819 71.2319 34.351 71.1889 34.5263C71.1489 34.6986 71.1289 34.9462 71.1289 35.2691V37.8572H70.2985V32.9163Z" fill="#3A3A3A"/>
<path d="M22.8998 0.197475V5.83244C22.6894 5.84591 22.5195 5.86208 22.3603 5.87017C20.2025 5.97527 18.0097 5.95102 15.8627 6.21781C13.7157 6.4846 11.8168 7.5329 10.247 9.07975C8.22421 11.0115 6.94416 13.5913 6.62999 16.3694C6.49243 17.5632 6.4196 18.7705 6.40072 19.9724C6.36026 22.2576 6.38184 24.5537 6.37644 26.8308V28.0193L6.56256 28.0489C6.69636 27.7408 6.80286 27.4216 6.88083 27.0949C7.35338 23.7543 9.07336 20.7159 11.6954 18.5899C13.2355 17.3018 15.0481 16.558 16.9982 16.0621C18.9483 15.5663 20.8769 15.5232 22.8971 15.5744V21.3468C22.657 21.3468 22.4224 21.3468 22.185 21.3468C19.9841 21.4195 17.8478 21.7214 15.9247 22.9367C14.3522 23.9284 13.3003 25.2894 12.9577 27.1057C12.7043 28.3917 12.551 29.6954 12.4992 31.0052C12.4264 33.3093 12.4803 35.6188 12.4803 37.9822H0.0729741V37.3111C0.0729741 31.5064 0.0513969 25.699 0.0864612 19.8942C0.0864612 18.3366 0.0864633 16.7439 0.404739 15.2294C1.68323 8.96657 4.78777 4.01341 10.924 1.43981C12.8634 0.599482 14.9572 0.17356 17.071 0.18939C18.9834 0.221729 20.9092 0.197475 22.8998 0.197475Z" fill="#3A3A3A"/>
</svg>

<svg width="75" height="39" fill="none" xmlns="http://www.w3.org/2000/svg"><path d="M31.495 23.162c.43 0 .77-.086 1.02-.258.252-.173.378-.483.378-.932 0-.483-.175-.812-.526-.988-.188-.092-.438-.138-.752-.138h-2.242v2.316h2.122zm-3.04-3.105h3.137c.517 0 .943.075 1.278.226.636.29.955.823.955 1.601 0 .406-.085.738-.254.997-.166.258-.4.465-.701.622.264.108.463.25.595.425.135.175.21.46.226.853l.032.91c.01.257.031.45.065.576.055.215.154.354.295.415v.152h-1.126a.85.85 0 0 1-.073-.226 4.333 4.333 0 0 1-.047-.535l-.055-1.13c-.021-.443-.186-.74-.493-.89-.176-.084-.451-.125-.826-.125h-2.09v2.906h-.918v-6.777zm10.195 4l-1.028-2.994-1.094 2.994h2.122zm-1.508-4h1.038l2.459 6.777h-1.006l-.687-2.03h-2.68l-.734 2.03h-.941l2.55-6.777zm7.188-.184c.858 0 1.523.226 1.997.678.474.452.737.966.789 1.54h-.895c-.101-.436-.304-.782-.609-1.037-.301-.256-.726-.383-1.273-.383-.668 0-1.207.235-1.62.706-.409.467-.613 1.185-.613 2.154 0 .794.184 1.438.553 1.933.373.492.926.738 1.661.738.677 0 1.192-.26 1.546-.78.187-.273.327-.633.42-1.079h.895c-.08.713-.345 1.312-.794 1.795-.538.58-1.264.871-2.177.871-.788 0-1.45-.238-1.984-.715-.704-.63-1.057-1.604-1.057-2.92 0-1 .265-1.82.794-2.459.572-.695 1.36-1.042 2.367-1.042zM28.432 31.08h4.7v.83H29.35v2.058h3.326v.807H29.35v3.082h-.918V31.08zm7.538 6.242c.55 0 .927-.208 1.13-.623a3.11 3.11 0 0 0 .31-1.393c0-.461-.074-.837-.222-1.126-.234-.455-.637-.682-1.209-.682-.507 0-.876.193-1.107.58-.23.388-.346.856-.346 1.403 0 .526.115.965.346 1.315.23.35.597.526 1.098.526zm.032-4.549c.637 0 1.175.212 1.615.637.44.424.66 1.049.66 1.873 0 .797-.194 1.455-.582 1.974-.387.52-.988.78-1.803.78-.68 0-1.22-.229-1.62-.687-.4-.462-.6-1.08-.6-1.855 0-.83.211-1.491.633-1.984.42-.492.987-.738 1.697-.738zm4.097.143v3.28c0 .253.04.459.12.619.148.295.423.443.826.443.578 0 .972-.259 1.18-.776.115-.276.172-.656.172-1.14v-2.426h.83v4.941h-.784l.009-.729a1.675 1.675 0 0 1-.401.475c-.317.259-.702.388-1.154.388-.704 0-1.184-.235-1.44-.706-.138-.252-.207-.589-.207-1.01v-3.359h.849zm4.429 0h.789v.702c.233-.29.481-.497.742-.623.262-.126.553-.19.873-.19.7 0 1.174.245 1.42.734.136.268.203.65.203 1.149v3.17h-.844v-3.115c0-.301-.044-.544-.134-.729-.147-.307-.415-.461-.802-.461-.197 0-.359.02-.485.06a1.247 1.247 0 0 0-.6.406c-.138.163-.229.332-.272.507-.04.173-.06.42-.06.743v2.588h-.83v-4.94zm5.785 2.528c0 .53.112.972.337 1.33.224.356.584.534 1.08.534.384 0 .7-.164.945-.493.25-.333.374-.808.374-1.426 0-.624-.128-1.086-.383-1.384-.255-.301-.57-.452-.946-.452-.418 0-.758.16-1.02.48-.258.32-.387.79-.387 1.411zm1.25-2.615c.379 0 .695.08.95.24.148.092.316.253.504.484v-2.496h.798v6.8h-.748v-.687c-.193.304-.423.524-.687.66a1.968 1.968 0 0 1-.909.203c-.55 0-1.027-.231-1.43-.693-.403-.464-.604-1.08-.604-1.85 0-.72.183-1.342.549-1.868.369-.529.895-.793 1.577-.793zm4.12 3.713c0 .24.088.43.263.568a.975.975 0 0 0 .623.208c.292 0 .575-.068.849-.203.461-.225.692-.593.692-1.103v-.67a1.422 1.422 0 0 1-.392.162c-.16.043-.317.074-.47.093l-.504.064c-.301.04-.527.103-.678.19-.255.144-.383.375-.383.691zm2.012-1.679c.19-.024.318-.104.383-.24a.73.73 0 0 0 .055-.318c0-.283-.102-.488-.305-.614-.2-.129-.487-.194-.862-.194-.434 0-.742.117-.923.351-.102.13-.168.322-.198.577h-.775c.015-.61.212-1.032.59-1.269.382-.24.823-.36 1.324-.36.581 0 1.053.111 1.416.333.36.22.54.565.54 1.033v2.846c0 .086.017.156.051.208.037.052.112.078.226.078.037 0 .078-.001.125-.004.046-.006.095-.014.147-.023v.613c-.129.037-.227.06-.295.07-.068.009-.16.013-.277.013-.286 0-.494-.101-.623-.304a1.175 1.175 0 0 1-.143-.457c-.169.222-.412.414-.729.577a2.255 2.255 0 0 1-1.047.244c-.458 0-.833-.138-1.126-.415a1.398 1.398 0 0 1-.433-1.047c0-.458.143-.814.429-1.066.286-.252.661-.407 1.126-.466l1.324-.166zm2.777-3.326h.84v1.38h.788v.677h-.788v3.225c0 .172.058.288.175.346.064.034.172.051.323.051h.129l.161-.014v.655a1.846 1.846 0 0 1-.3.06 2.772 2.772 0 0 1-.332.019c-.387 0-.65-.099-.789-.296-.138-.2-.207-.458-.207-.775v-3.27h-.67v-.679h.67v-1.38zm2.463 1.402h.845v4.918h-.845V32.94zm0-1.859h.845v.941h-.845v-.94zM67 37.322c.55 0 .927-.208 1.13-.623a3.11 3.11 0 0 0 .31-1.393c0-.461-.075-.837-.222-1.126-.234-.455-.637-.682-1.209-.682-.507 0-.876.193-1.107.58-.23.388-.346.856-.346 1.403 0 .526.115.965.346 1.315.23.35.597.526 1.098.526zm.032-4.549c.637 0 1.175.212 1.615.637.44.424.66 1.049.66 1.873 0 .797-.194 1.455-.582 1.974-.387.52-.988.78-1.803.78-.68 0-1.22-.229-1.62-.687-.4-.462-.6-1.08-.6-1.855 0-.83.211-1.491.632-1.984.422-.492.988-.738 1.698-.738zm3.267.143h.788v.702c.234-.29.482-.497.743-.623a1.98 1.98 0 0 1 .872-.19c.701 0 1.175.245 1.421.734.135.268.203.65.203 1.149v3.17h-.844v-3.115c0-.301-.045-.544-.134-.729-.148-.307-.415-.461-.803-.461-.197 0-.358.02-.484.06a1.247 1.247 0 0 0-.6.406c-.138.163-.23.332-.272.507-.04.173-.06.42-.06.743v2.588h-.83v-4.94zM22.899.197v5.635c-.21.014-.38.03-.539.038-2.157.105-4.35.081-6.497.348-2.147.267-4.046 1.315-5.616 2.862a11.934 11.934 0 0 0-3.617 7.29 36.546 36.546 0 0 0-.23 3.602c-.04 2.286-.018 4.582-.024 6.859v1.188l.187.03a5.74 5.74 0 0 0 .318-.954 13.359 13.359 0 0 1 4.814-8.505c1.54-1.288 3.353-2.032 5.303-2.528 1.95-.496 3.879-.539 5.9-.488v5.773h-.713c-2.2.072-4.337.374-6.26 1.59-1.573.991-2.625 2.352-2.967 4.169a25.352 25.352 0 0 0-.459 3.9c-.073 2.303-.019 4.613-.019 6.976H.073v-.67c0-5.806-.022-11.613.013-17.418 0-1.557 0-3.15.319-4.665C1.683 8.967 4.788 4.013 10.924 1.44A15.176 15.176 0 0 1 17.071.19c1.912.033 3.838.008 5.829.008z" fill="#3A3A3A"/></svg>
